svg/s/MP.svg

<svg width="16" height="12" viewBox="0 0 16 12" fill="none" xmlns="http://www.w3.org/2000/svg">
<mask id="mask0" mask-type="alpha" maskUnits="userSpaceOnUse" x="0" y="0" width="16" height="12">
<rect width="16" height="12" fill="white"/>
</mask>
<g mask="url(#mask0)">
<path fill-rule="evenodd" clip-rule="evenodd" d="M0 0H17V12H0V0Z" fill="#2993EC"/>
<path fill-rule="evenodd" clip-rule="evenodd" d="M3.10638 5.79167C3.10638 8.43803 5.29733 10.5833 8 10.5833C10.7027 10.5833 12.8936 8.43803 12.8936 5.79167C12.8936 3.1453 10.7027 1 8 1C5.29733 1 3.10638 3.1453 3.10638 5.79167ZM11.8298 5.79167C11.8298 7.86273 10.1151 9.54167 8 9.54167C5.88487 9.54167 4.17021 7.86273 4.17021 5.79167C4.17021 3.7206 5.88487 2.04167 8 2.04167C10.1151 2.04167 11.8298 3.7206 11.8298 5.79167Z" fill="#F1F9FF"/>
<path fill-rule="evenodd" clip-rule="evenodd" d="M3.53192 5.79163C3.53192 8.20787 5.53235 10.1666 8.00001 10.1666C10.4677 10.1666 12.4681 8.20787 12.4681 5.79163C12.4681 3.37538 10.4677 1.41663 8.00001 1.41663C5.53235 1.41663 3.53192 3.37538 3.53192 5.79163ZM12.2553 5.79163C12.2553 8.09281 10.3502 9.95829 8.00001 9.95829C5.64986 9.95829 3.74469 8.09281 3.74469 5.79163C3.74469 3.49044 5.64986 1.62496 8.00001 1.62496C10.3502 1.62496 12.2553 3.49044 12.2553 5.79163Z" fill="#E31D1C"/>
<path d="M8.00001 10.0916C5.57228 10.0916 3.60692 8.16497 3.60692 5.79163H3.45692C3.45692 8.25077 5.49243 10.2416 8.00001 10.2416V10.0916ZM12.3931 5.79163C12.3931 8.16497 10.4277 10.0916 8.00001 10.0916V10.2416C10.5076 10.2416 12.5431 8.25077 12.5431 5.79163H12.3931ZM8.00001 1.49163C10.4277 1.49163 12.3931 3.41828 12.3931 5.79163H12.5431C12.5431 3.33248 10.5076 1.34163 8.00001 1.34163V1.49163ZM3.60692 5.79163C3.60692 3.41828 5.57228 1.49163 8.00001 1.49163V1.34163C5.49243 1.34163 3.45692 3.33248 3.45692 5.79163H3.60692ZM8.00001 10.0333C10.3901 10.0333 12.3303 8.13571 12.3303 5.79163H12.1803C12.1803 8.04991 10.3102 9.88329 8.00001 9.88329V10.0333ZM3.66969 5.79163C3.66969 8.13571 5.60993 10.0333 8.00001 10.0333V9.88329C5.68978 9.88329 3.81969 8.04991 3.81969 5.79163H3.66969ZM8.00001 1.54996C5.60993 1.54996 3.66969 3.44754 3.66969 5.79163H3.81969C3.81969 3.53334 5.68978 1.69996 8.00001 1.69996V1.54996ZM12.3303 5.79163C12.3303 3.44754 10.3901 1.54996 8.00001 1.54996V1.69996C10.3102 1.69996 12.1803 3.53334 12.1803 5.79163H12.3303Z" fill="#E31D1C"/>
<path fill-rule="evenodd" clip-rule="evenodd" d="M7.29306 2.875C7.10968 2.875 6.97327 3.0445 7.01247 3.22364L7.2059 4.10751C7.22289 4.18516 7.27038 4.24967 7.33412 4.28959C7.27533 4.3353 7.23454 4.40354 7.22515 4.48242L6.53137 10.3052C6.51864 10.412 6.56643 10.5167 6.65983 10.5701C6.92095 10.7194 7.48707 11 8.05319 11C8.61932 11 9.18544 10.7194 9.44655 10.5701C9.53995 10.5167 9.58775 10.412 9.57502 10.3052L8.88124 4.48242C8.87184 4.40354 8.83105 4.3353 8.77227 4.28959C8.83601 4.24967 8.88349 4.18516 8.90049 4.10751L9.09392 3.22364C9.13312 3.0445 8.9967 2.875 8.81332 2.875H7.29306Z" fill="#A7A7A7"/>
<path d="M3.25964 6.00645C3.28543 5.92393 3.37465 5.8775 3.45892 5.90275C3.5432 5.928 3.59061 6.01537 3.56482 6.09789C3.5202 6.24066 3.5202 6.45153 3.56943 6.72742C3.58831 6.83325 3.61075 6.91496 3.63836 6.98714C3.64935 7.01589 3.66073 7.04221 3.67592 7.07487C3.66916 7.06033 3.70625 7.13911 3.71527 7.15952C3.76296 7.26747 3.78405 7.36207 3.78405 7.50067C3.78405 7.58696 3.71261 7.65692 3.62448 7.65692C3.53635 7.65692 3.4649 7.58696 3.4649 7.50067C3.4649 7.40596 3.45318 7.35337 3.42235 7.2836C3.41509 7.26716 3.38045 7.19358 3.38549 7.20443C3.36748 7.16572 3.35338 7.13309 3.33948 7.09673C3.30484 7.00617 3.27726 6.90578 3.25504 6.7812C3.19793 6.46112 3.19793 6.2039 3.25964 6.00645Z" fill="#73BE4A"/>
<path fill-rule="evenodd" clip-rule="evenodd" d="M8.10638 8.08954L6.04914 9.49128L6.77491 7.14232L4.77769 5.65968L7.28348 5.60968L8.10638 3.29163L8.92928 5.60968L11.4351 5.65968L9.43786 7.14232L10.1636 9.49128L8.10638 8.08954Z" fill="#F7FCFF"/>
<path d="M12.7797 6.2147C12.7539 6.13218 12.6647 6.08576 12.5804 6.11101C12.4962 6.13626 12.4488 6.22362 12.4745 6.30614C12.5192 6.44891 12.5192 6.65978 12.4699 6.93568C12.4511 7.0415 12.4286 7.12321 12.401 7.19539C12.39 7.22415 12.3786 7.25046 12.3634 7.28313C12.3702 7.26858 12.3331 7.34736 12.3241 7.36778C12.2764 7.47572 12.2553 7.57032 12.2553 7.70892C12.2553 7.79522 12.3268 7.86517 12.4149 7.86517C12.503 7.86517 12.5745 7.79522 12.5745 7.70892C12.5745 7.61421 12.5862 7.56162 12.617 7.49186C12.6243 7.47542 12.6589 7.40183 12.6539 7.41268C12.6719 7.37397 12.686 7.34134 12.6999 7.30498C12.7345 7.21442 12.7621 7.11403 12.7843 6.98945C12.8414 6.66938 12.8414 6.41215 12.7797 6.2147Z" fill="#73BE4A"/>
<path d="M8.03044 1.57385C8.03044 1.57385 8.61263 1.83322 8.3612 2.2416" stroke="#73BE4A" stroke-width="0.5" stroke-linecap="round" stroke-linejoin="round"/>
<path d="M8.45596 1.57385C8.45596 1.57385 9.03815 1.83322 8.78672 2.2416" stroke="#73BE4A" stroke-width="0.5" stroke-linecap="round" stroke-linejoin="round"/>
<path d="M4.62992 3.17834C4.67213 3.10528 4.76078 3.08328 4.82794 3.12921C4.89509 3.17513 4.91531 3.27159 4.8731 3.34465C4.79211 3.48482 4.74996 3.67714 4.74996 3.92374C4.74996 4.01004 4.68566 4.07999 4.60634 4.07999C4.52702 4.07999 4.46272 4.01004 4.46272 3.92374C4.46272 3.62237 4.51734 3.37319 4.62992 3.17834Z" fill="#73BE4A"/>
<path d="M4.40425 4.60629C4.40425 4.69258 4.33995 4.76254 4.26064 4.76254C4.18132 4.76254 4.11702 4.69258 4.11702 4.60629V4.1612C4.11702 3.84627 4.16642 3.59826 4.27058 3.41714C4.31266 3.34399 4.40127 3.32179 4.46851 3.36756C4.53575 3.41334 4.55615 3.50975 4.51408 3.5829C4.44265 3.7071 4.40425 3.89987 4.40425 4.1612V4.60629Z" fill="#73BE4A"/>
<path d="M11.7421 4.39792C11.7421 4.48421 11.8064 4.55417 11.8857 4.55417C11.965 4.55417 12.0293 4.48421 12.0293 4.39792V3.95283C12.0293 3.6379 11.9799 3.38988 11.8758 3.20877C11.8337 3.13561 11.7451 3.11342 11.6778 3.15919C11.6106 3.20496 11.5902 3.30137 11.6323 3.37453C11.7037 3.49872 11.7421 3.6915 11.7421 3.95283V4.39792Z" fill="#73BE4A"/>
<path d="M12.1676 5.12704C12.1676 5.21334 12.2319 5.28329 12.3112 5.28329C12.3906 5.28329 12.4549 5.21334 12.4549 5.12704V4.68196C12.4549 4.36702 12.4055 4.11901 12.3013 3.93789C12.2592 3.86474 12.1706 3.84254 12.1034 3.88832C12.0361 3.93409 12.0157 4.0305 12.0578 4.10365C12.1292 4.22785 12.1676 4.42062 12.1676 4.68196V5.12704Z" fill="#73BE4A"/>
</g>
</svg>

<svg width="16" height="12" fill="none" xmlns="http://www.w3.org/2000/svg">
  <mask id="a" maskUnits="userSpaceOnUse" x="0" y="0" width="16" height="12">
    <path fill="#fff" d="M0 0h16v12H0z"/>
  </mask>
  <g mask="url(#a)">
    <path fill-rule="evenodd" clip-rule="evenodd" d="M0 0h17v12H0V0z" fill="#2993EC"/>
    <path fill-rule="evenodd" clip-rule="evenodd" d="M3.106 5.792c0 2.646 2.191 4.791 4.894 4.791 2.703 0 4.894-2.145 4.894-4.791C12.894 3.145 10.703 1 8 1 5.297 1 3.106 3.145 3.106 5.792zm8.724 0c0 2.07-1.715 3.75-3.83 3.75s-3.83-1.68-3.83-3.75c0-2.071 1.715-3.75 3.83-3.75s3.83 1.679 3.83 3.75z" fill="#F1F9FF"/>
    <path fill-rule="evenodd" clip-rule="evenodd" d="M3.532 5.792c0 2.416 2 4.375 4.468 4.375s4.468-1.96 4.468-4.375c0-2.417-2-4.375-4.468-4.375S3.532 3.375 3.532 5.792zm8.723 0c0 2.3-1.905 4.166-4.255 4.166-2.35 0-4.255-1.865-4.255-4.166C3.745 3.49 5.65 1.625 8 1.625c2.35 0 4.255 1.865 4.255 4.167z" fill="#E31D1C"/>
    <path d="M8 10.092c-2.428 0-4.393-1.927-4.393-4.3h-.15c0 2.459 2.035 4.45 4.543 4.45v-.15zm4.393-4.3c0 2.373-1.965 4.3-4.393 4.3v.15c2.508 0 4.543-1.991 4.543-4.45h-.15zM8 1.492c2.428 0 4.393 1.926 4.393 4.3h.15c0-2.46-2.035-4.45-4.543-4.45v.15zm-4.393 4.3c0-2.374 1.965-4.3 4.393-4.3v-.15c-2.508 0-4.543 1.99-4.543 4.45h.15zM8 10.033c2.39 0 4.33-1.897 4.33-4.241h-.15c0 2.258-1.87 4.091-4.18 4.091v.15zM3.67 5.792c0 2.344 1.94 4.241 4.33 4.241v-.15c-2.31 0-4.18-1.833-4.18-4.091h-.15zM8 1.55c-2.39 0-4.33 1.898-4.33 4.242h.15C3.82 3.533 5.69 1.7 8 1.7v-.15zm4.33 4.242c0-2.344-1.94-4.242-4.33-4.242v.15c2.31 0 4.18 1.833 4.18 4.092h.15z" fill="#E31D1C"/>
    <path fill-rule="evenodd" clip-rule="evenodd" d="M7.293 2.875c-.183 0-.32.17-.28.349l.193.884a.287.287 0 00.128.182.287.287 0 00-.109.192l-.694 5.823a.265.265 0 00.129.265c.261.15.827.43 1.393.43.566 0 1.132-.28 1.394-.43a.265.265 0 00.128-.265l-.694-5.823a.287.287 0 00-.109-.192.287.287 0 00.128-.182l.194-.884a.287.287 0 00-.28-.349h-1.52z" fill="#A7A7A7"/>
    <path d="M3.26 6.006a.16.16 0 01.199-.103.156.156 0 01.106.195c-.045.143-.045.353.004.63a1.403 1.403 0 00.146.431.773.773 0 01.07.342.158.158 0 01-.16.156.158.158 0 01-.16-.156.47.47 0 00-.043-.217 6.482 6.482 0 00-.037-.08 1.602 1.602 0 01-.13-.423c-.057-.32-.057-.577.005-.775z" fill="#73BE4A"/>
    <path fill-rule="evenodd" clip-rule="evenodd" d="M8.106 8.09L6.05 9.49l.726-2.349L4.778 5.66l2.505-.05.823-2.318.823 2.318 2.506.05-1.997 1.482.726 2.35L8.106 8.09z" fill="#F7FCFF"/>
    <path d="M12.78 6.215a.16.16 0 00-.2-.104.156.156 0 00-.105.195c.044.143.044.354-.005.63a1.398 1.398 0 01-.107.347l-.039.085a.773.773 0 00-.069.341c0 .086.072.156.16.156.088 0 .16-.07.16-.156a.47.47 0 01.042-.217l.037-.08a1.605 1.605 0 00.13-.423c.057-.32.057-.577-.004-.774z" fill="#73BE4A"/>
    <path d="M8.03 1.574s.583.26.331.668m.095-.668s.582.26.33.668" stroke="#73BE4A" stroke-width=".5" stroke-linecap="round" stroke-linejoin="round"/>
    <path d="M4.63 3.178a.137.137 0 01.198-.049.165.165 0 01.045.216c-.08.14-.123.332-.123.579 0 .086-.064.156-.144.156-.079 0-.143-.07-.143-.156 0-.302.054-.55.167-.746z" fill="#73BE4A"/>
    <path d="M4.404 4.606c0 .087-.064.157-.143.157-.08 0-.144-.07-.144-.157v-.445c0-.315.05-.563.154-.744a.137.137 0 01.197-.05.164.164 0 01.046.216c-.071.124-.11.317-.11.578v.445zm7.338-.208c0 .086.064.156.144.156.079 0 .143-.07.143-.156v-.445c0-.315-.05-.563-.153-.744a.137.137 0 00-.198-.05.165.165 0 00-.046.216c.072.124.11.317.11.578v.445z" fill="#73BE4A"/>
    <path d="M12.168 5.127c0 .086.064.156.143.156.08 0 .144-.07.144-.156v-.445c0-.315-.05-.563-.154-.744a.137.137 0 00-.198-.05.164.164 0 00-.045.216c.071.124.11.317.11.578v.445z" fill="#73BE4A"/>
  </g>
</svg>
